!!!!SEGMENT: pl-sa--228-a-vi-32--011_luna-georgius--litania-ex-d-salus-infirmorum.krn
!!!cenid: 17xx:456
!!!COM: Luna, Georgius
!!!COM-rismID: pe41010079
!!!CDT:
!!!CNT:
!!!OPR: Litania ex D
!!!OTL: Salus infirmorum
!!!OMV: 011
!!!PDT:
!!!AGN: Sacred; Mass
!!!SMS-siglum: PL-SA
!!!SMS-shelfmark: 228/A VI 32
!!!SMS-shelfwork: 001-011 M
!!!SMS-variant: Violino Primo: PL-SA 228/A VI 32:13
!!!SMS-altvar: Violino Imo: PL-SA 228/A VI 32:31
!!!NIFC-rismSourceID: 1001068968
!!!NIFC-rismChildID: 1001068968
!!!NIFC-islandoraID: none
!!!URL-pdf-islandora:
!!!URL-scan: https://bc.bdsandomierz.pl/dlibra/publication/1604/edition/1572/content @EN{Scan in the Sandomierz Diocese Digital Library} @PL{Skany w portalu Cyfrowa Biblioteka Diecezjalna w Sandomierzu}
!!!ONB-nifc: UWAGA: części Litanii: Sinfonia, Kyrie, Pater de caelis, Sancta trinitas, Sancta Maria, Mater Christi, Mater amabilis, Virgo prudentissima, Speculum iustitiae, Rosa mistica, Salus infirmorum, Regina angelorum, Agnus Dei
!!!AIN: 3 empty 1 tenor 2 violn 1 vox
!!!key:
**kern	**kern	**kern	**kern	**text	**kern	**text	**kern	**kern
*part7	*part6	*part5	*part4	*part4	*part3	*part3	*part2	*part1
*staff7	*staff6	*staff5	*staff4	*staff4	*staff3	*staff3	*staff2	*staff1
*Iempty	*Ivioln	*Ivioln	*Itenor	*	*Ivox	*	*Iempty	*Iempty
*I"Fondamento	*I"Violino Secundo	*I"Violino Primo	*I"Tenore	*	*I"Canto	*	*I"Clarino Secundo	*I"Clarino Primo
*I'b	*I'vl 2	*I'vl 1	*I'T	*	*I'S	*	*I'clno 2	*I'clno 1
*clefF4	*clefG2	*clefG2	*clefC4	*	*clefC1	*	*clefG2	*clefG2
*	*	*	*	*	*	*	*ITrd-1c-2	*ITrd-1c-2
*k[b-e-]	*k[b-e-]	*k[b-e-]	*k[e-b-]	*	*k[b-e-]	*	*k[b-e-]	*k[b-e-]
*g:	*g:	*g:	*g:	*	*g:	*	*g:	*g:
*M3/4	*M3/4	*M3/4	*M3/4	*	*M3/4	*	*M3/4	*M3/4
=1	=1	=1	=1	=1	=1	=1	=1	=1
*	*tremolo	*tremolo	*	*	*	*	*	*
*	*2\right	*2\right	*	*	*	*	*	*
!LO:SIC:b:o:s=:v:skreślone Speculum	!	!LO:TX:rj:b:t=Salus	!LO:TX:t=P:problem=kolejność bemoli&colon; e-, B-	!	!	!	!	!
!LO:TX:b:t=Salus Infirmorum	!LO:TX:rj:a:t=adagio	!LO:TX:rj:a:t=adagio	!	!	!LO:TX:t=P:problem=kolejność bemoli&colon;b-, ee-	!	!	!
!LO:TX:rj:a:t=Adagio	!LO:TX:rj:b:t=Salus	!	!LO:TX:a:t=adagio	!	!LO:TX:rj:a:t=adagio	!	!LO:TX:t=P:problem=brak adnotacji	!LO:TX:a:t=Salus Tacet
!	!	!	!LO:N:vis=0	!	!	!	!	!
8G\L	8b-\L	8dd\L	1.r	.	4dd\	Sa-	2.ryy	2.ryy
8G\	8b-\	8dd\	.	.	.	.	.	.
8G\	8b-\	8dd\	.	.	4g\	-lus	.	.
8G\	8b-\	8dd\	.	.	.	.	.	.
8G\	8b-\	8dd\	.	.	8g\	in-	.	.
8G\J	8b-\J	8dd\J	.	.	8dd\	-fir-	.	.
=2	=2	=2	=2	=2	=2	=2	=2	=2
*2\right	*	*	*	*	*	*	*	*
*tremolo	*	*	*	*	*	*	*	*
8A\L	8cc#X\L	8een\L	.	.	4cc#X\	-mo-	2.ryy	2.ryy
8A\	8cc#X\	8een\	.	.	.	.	.	.
8A\	8cc#X\	8een\	.	.	4cc#\	-rum	.	.
8A\	8cc#X\	8een\	.	.	.	.	.	.
8A\	8cc#X\	8een\	.	.	4cc#\	o-	.	.
8A\J	8cc#X\J	8een\J	.	.	.	.	.	.
!	!	!	!	!	!LO:LB:g=original	!	!	!
=3	=3	=3	=3	=3	=3	=3	=3	=3
!	!LO:SIC:s=2cc#	!LO:SIC:s=2een	!	!	!	!	!	!
8A\L	8cc\L	8ee-\L	2.r	.	8een\	-ra	2.ryy	2.ryy
8A\	8cc\	8ee-\	.	.	8b-\	o-	.	.
8A\	8cc\	8ee-\	.	.	4.a\	-ra	.	.
8A\	8cc\	8ee-\	.	.	.	.	.	.
8A\	8cc\	8ee-\	.	.	.	.	.	.
8A\J	8cc\J	8ee-\J	.	.	8g\	pro	.	.
=4	=4	=4	=4	=4	=4	=4	=4	=4
8D\L	8a/L	8ff\L	4r	.	8f/L	no-	2.ryy	2.ryy
8D\	8a/	8ff\	.	.	8en/J	.	.	.
8D\	8a/	8ff\	4r	.	4d/	-bis	.	.
8D\	8a/	8ff\	.	.	.	.	.	.
8D\	8a/	8ff\	8A\L	Re-	4r	.	.	.
8D\J	8a/J	8ff\J	8d\J	.	.	.	.	.
=5	=5	=5	=5	=5	=5	=5	=5	=5
8C/L	8b-/L	8gg\L	8B-\	-fu-	4r	.	2.ryy	2.ryy
8C/	8b-/	8gg\	8A\	-gi-	.	.	.	.
8C/	8b-/	8gg\	4B-\	-um	4gg\	o-	.	.
8C/	8b-/	8gg\	.	.	.	.	.	.
8C/	8b-/	8gg\	8B-\	pec-	8gg\	-ra	.	.
8C/J	8b-/J	8gg\J	8B-\	-ca-	8gg\	pro	.	.
*	*	*Xtremolo	*	*	*	*	*	*
=6	=6	=6	=6	=6	=6	=6	=6	=6
8F\L	8a/L	8ff\L	8B-\L	-to-	8gg\L	no-	2.ryy	2.ryy
8F\	8a/	8cc\	8A\J	.	8ff\J	.	.	.
8F\	8a/	8cc\	4A\	-rum	4ff\	-bis	.	.
8F\	8a/	8cc\	.	.	.	.	.	.
8F\	8a/	8cc\	4r	.	8f/	Con-	.	.
8F\J	8a/J	8cc\J	.	.	8f/	-so-	.	.
=7	=7	=7	=7	=7	=7	=7	=7	=7
*	*	*tremolo	*	*	*	*	*	*
8F\L	8cc\L	8ee-X\L	4r	.	8ee-X\	-lat-	2.ryy	2.ryy
8F\	8cc\	8ee-X\	.	.	8dd\	-rix	.	.
8F\	8cc\	8ee-X\	4c\	o-	4ee-\	af-	.	.
8F\	8cc\	8ee-X\	.	.	.	.	.	.
8F\	8cc\	8ee-X\	8c\	-ra	4ee-\	-lic-	.	.
8F\J	8cc\J	8ee-X\J	8c\	pro	.	.	.	.
=8	=8	=8	=8	=8	=8	=8	=8	=8
8BB-/L	8f/L	8dd\L	4c\	no-	4ee-\	-to-	2.ryy	2.ryy
8BB-/	8f/	8dd\	.	.	.	.	.	.
8BB-/	8f/	8dd\	4B-\	-bis	4dd\	-rum	.	.
8BB-/	8f/	8dd\	.	.	.	.	.	.
8BB-/	8f/	8dd\	4B-\	au-	4r	.	.	.
8BB-/J	8f/J	8dd\J	.	.	.	.	.	.
=9	=9	=9	=9	=9	=9	=9	=9	=9
8BB-/L	8f/L	8dd\L	8a-X\	-xi-	4r	.	2.ryy	2.ryy
8BB-/	8f/	8dd\	8g\	-li-	.	.	.	.
8BB-/	8f/	8dd\	8a-\	-um	4ff\	o-	.	.
8BB-/	8f/	8dd\	8a-\	Chris-	.	.	.	.
8BB-/	8f/	8dd\	8a-\	-ti-	8ff\	-ra	.	.
8BB-/J	8f/J	8dd\J	8a-\	-a-	8ff\	pro	.	.
*Xtremolo	*	*	*	*	*	*	*	*
!	!	!	!LO:LB:g=original	!	!	!	!	!
=10	=10	=10	=10	=10	=10	=10	=10	=10
!	!	!	!LO:SIC:s=8a-	!	!	!	!	!
8E-\L	8g/L	8ee-\L	8a\L	-no-	8ff\L	no-	2.ryy	2.ryy
8E-\	8g/	8ee-\	8g\J	.	8ee-X\J	.	.	.
8E-\	8g/	8ee-\	4g\	-rum	4ee-\	-bis	.	.
8E-\	8g/	8ee-\	.	.	.	.	.	.
8C\	8g/	8ee-\	[4g\	o-	[4ee-\	o-	.	.
8C\J	8g/J	8ee-\J	.	.	.	.	.	.
*	*Xtremolo	*Xtremolo	*	*	*	*	*	*
=11	=11	=11	=11	=11	=11	=11	=11	=11
8F\L	8g/L	8ee-\L	4g\]	.	4ee-\]	.	2.ryy	2.ryy
8F\	8g/	8ee-\	.	.	.	.	.	.
!	!LO:SIC:s=8f#	!	!	!	!	!	!	!
8F#X\	8f/	8dd\	4f\	-ra	4dd\	-ra	.	.
!	!LO:SIC:s=8f#	!	!	!	!	!	!	!
8F#\	8f/	8dd\	.	.	.	.	.	.
8F#\	8e-/	8cc\	4e-X\	pro	4cc\	pro	.	.
8F#\J	8e-/J	8cc\J	.	.	.	.	.	.
!	!LO:LB:g=original	!	!	!	!LO:LB:g=original	!	!	!
=12	=12	=12	=12	=12	=12	=12	=12	=12
*tremolo	*	*	*	*	*	*	*	*
8G\L	8e-/L	8cc\L	4e-\	no-	4cc\	no-	2.ryy	2.ryy
8G\	8e-/	8cc\	.	.	.	.	.	.
8G\	8d/	8bn\	4d\	-bis	4bn\	-bis	.	.
8G\	8d/	8b\	.	.	.	.	.	.
8G\	8g/	8g\	[4G/	o-	[4g\	o-	.	.
8G\J	8g/J	8g\J	.	.	.	.	.	.
=13	=13	=13	=13	=13	=13	=13	=13	=13
8G\L	8g/L	8g/L	4G/]	.	4g\]	.	2.ryy	2.ryy
8G\	8g/	8g/J	.	.	.	.	.	.
8G\	8f/	8a-X/L	4F/	.	4a-X\	.	.	.
8G\	8f/	8a-/J	.	.	.	.	.	.
8G\	8f/	8cc\L	4F/	.	4cc\	.	.	.
8G\J	8f/J	8cc\J	.	.	.	.	.	.
*Xtremolo	*	*	*	*	*	*	*	*
=14	=14	=14	=14	=14	=14	=14	=14	=14
*	*	*	*2\right	*	*2\right	*	*	*
8G\L	8bn\L	8dd\L	2d\	.	2bn\	.	2.ryy	2.ryy
8G\	8b\	8dd\	.	.	.	.	.	.
8F\	8b\	8dd\	.	.	.	.	.	.
8F\	8b\	8dd\	.	.	.	.	.	.
8E-\	8cc\	8ee-\	4e-\	-ra	4cc\	-ra	.	.
8E-\J	8cc\J	8ee-\J	.	.	.	.	.	.
!	!	!LO:LB:g=original	!	!	!	!	!	!
=15	=15	=15	=15	=15	=15	=15	=15	=15
*	*tremolo	*tremolo	*	*	*	*	*	*
!LO:TX:t=P:problem=mixed beam	!	!	!	!	!	!	!	!
8F\L	8bn\L	8dd\L	4f\	pro	8dd\L	pro	2.ryy	2.ryy
8F\	8bn\	8dd\	.	.	8ff\J	.	.	.
.	.	.	8qqe-/	.	8qqcc/	.	.	.
8G\	8bn\	8dd\	2d\	no-	2bn\	no-	.	.
8G\	8bn\	8dd\	.	.	.	.	.	.
8GG/	8bn\	8dd\	.	.	.	.	.	.
8GG/J	8bn\J	8dd\J	.	.	.	.	.	.
!LO:LB:g=original	!	!	!	!	!	!	!	!
=16	=16	=16	=16	=16	=16	=16	=16	=16
*tremolo	*	*	*	*	*	*	*	*
8C/L	8cc\L	8ee-\L	2e-\	-bis	2cc\	-bis	2.ryy	2.ryy
8C/	8cc\	8ee-\	.	.	.	.	.	.
8C/	8cc\	8ee-\	.	.	.	.	.	.
8C/	8cc\	8ee-\	.	.	.	.	.	.
8C/	8cc\	8ee-\	4c\	o-	4ee-\	o-	.	.
8C/J	8cc\J	8ee-\J	.	.	.	.	.	.
*Xtremolo	*	*Xtremolo	*	*	*	*	*	*
=17	=17	=17	=17	=17	=17	=17	=17	=17
8F#X\L	8a/L	8ee-\L	(4c\	.	4ee-\	.	2.ryy	2.ryy
8F#\	8a/	8ee-\J	.	.	.	.	.	.
8D\	8a/	8dd\L	4d\	.	4dd\	.	.	.
8D\	8a/	8dd\J	.	.	.	.	.	.
8D\	8a/	8cc\L	4e-\)	.	4cc\	.	.	.
8D\J	8a/J	8cc\J	.	.	.	.	.	.
*	*Xtremolo	*	*	*	*	*	*	*
=18	=18	=18	=18	=18	=18	=18	=18	=18
8GG/L	8b-X/L	8dd\L	4d\	.	4b-\	.	2.ryy	2.ryy
8GG/	8b-/	8dd\J	.	.	.	.	.	.
8AA/	8a/	8cc\L	4c\	.	4a\	.	.	.
8AA/	8a/	8cc\J	.	.	.	.	.	.
8BB-/	8g/	8b-\L	4B-\	-ra	4g\	-ra	.	.
8BB-/J	8g/J	8b-\J	.	.	.	.	.	.
=19	=19	=19	=19	=19	=19	=19	=19	=19
!LO:TX:t=P:problem=mixed beam	!	!	!	!	!	!	!	!
8C\L	8a/L	8cc\L	4c\	pro	4a\	pro	2.ryy	2.ryy
8C\	8a/	8cc\	.	.	.	.	.	.
.	.	.	8qqB-/	.	8qqg/	.	.	.
8D\	8f#X/	8a\	2A\	no-	2f#X/	no-	.	.
8D\	8f#/	8a\	.	.	.	.	.	.
8DD/	8f#/	8a\	.	.	.	.	.	.
8DD/J	8f#/J	8a\J	.	.	.	.	.	.
!	!	!	!LO:LB:g=original	!	!	!	!	!
=20	=20	=20	=20	=20	=20	=20	=20	=20
!	!	!LO:TX:t=P:problem=wydrapana kreska tremolo	!	!	!	!	!	!
!	!	!LO:TX:t=P:problem=kreska z obustronną repetycją i fermatą	!	!	!	!	!	!
2.GG/	2.g/	2.b-\	2.B-\	-bis	2.g\	-bis	2.ryy	2.ryy
!	!	!	!	!	!LO:TX:b:t=Regina TaCet	!	!	!
==:||:;	==	==:||:;	==	==	==	==	==	==
*-	*-	*-	*-	*-	*-	*-	*-	*-
!!!system-decoration: [(s1,s2)][(s3,s4)][(s5,s6)][(s7)]
!!!EED: Leszek Kubiak
!!!EEV: 2020-10-22
!!!ENC: Kamil Watkowski
!!!END: 2020-05-21
!!!YEC: Copyright 2022 Narodowy Instytut Fryderyka Chopina (https://polishscores.org)
!!!YEM: License CC-BY-4.0 (https://creativecommons.org/licenses/by/4.0)
